src/pos-icons/rivet.svg

<svg height="24" viewBox="0 0 24 24" width="24" xmlns="http://www.w3.org/2000/svg"><path d="m11.43 2c-.82 0-1.49.65-1.49 1.5v3.46h-1.99v.99h7.96v-.99h-1.99c0-1.16 0-2.32 0-3.46 0-.85-.67-1.5-1.49-1.5zm-.49 6.95v12.92l.99 1 .99-1v-12.92z"/></svg>

<?xml version="1.0" encoding="UTF-8"?><!DOCTYPE svg PUBLIC "-//W3C//DTD SVG 1.1//EN" "http://www.w3.org/Graphics/SVG/1.1/DTD/svg11.dtd"><svg xmlns="http://www.w3.org/2000/svg" xmlns:xlink="http://www.w3.org/1999/xlink" version="1.1" id="mdi-rivet" width="24" height="24" viewBox="0 0 24 24"><path d="M11.43,2C10.61,2 9.94,2.65 9.94,3.5C9.94,4.64 9.94,5.8 9.94,6.96H7.95V7.95H15.91V6.96H13.92C13.92,5.8 13.92,4.64 13.92,3.5C13.92,2.65 13.25,2 12.43,2H11.43M10.94,8.95V21.87L11.93,22.87L12.92,21.87V8.95H10.94Z" /></svg>
